common/src/main/resources/glyphs/nodes/rw-access.svg

<svg xmlns="http://www.w3.org/2000/svg" width="13" height="9" fill="#C792EA" viewBox="0 0 24 24"><path fill="#4CAF50" d="m19 2-5 4.5v11l5-4.5zM6.5 5C4.55 5 2.45 5.4 1 6.5v14.66c0 .25.25.5.5.5.1 0 .15-.07.25-.07 1.35-.65 3.3-1.09 4.75-1.09 1.95 0 4.05.4 5.5 1.5 1.35-.85 3.8-1.5 5.5-1.5 1.65 0 3.35.31 4.75 1.06.1.05.15.03.25.03.25 0 .5-.25.5-.5V6.5c-.6-.45-1.25-.75-2-1V19c-1.1-.35-2.3-.5-3.5-.5-1.7 0-4.15.65-5.5 1.5V6.5C10.55 5.4 8.45 5 6.5 5"/><path fill="#F44336" d="M20.71 7.04c.39-.39.39-1.04 0-1.41l-2.34-2.34c-.37-.39-1.02-.39-1.41 0l-1.84 1.83 3.75 3.75M3 17.25V21h3.75L17.81 9.93l-3.75-3.75z"/></svg>

<!--
  - The MIT License (MIT)
  -
  - Copyright (c) 2015-2022 Elior "Mallowigi" Boukhobza
  -
  - Permission is hereby granted, free of charge, to any person obtaining a copy
  - of this software and associated documentation files (the "Software"), to deal
  - in the Software without restriction, including without limitation the rights
  - to use, copy, modify, merge, publish, distribute, sublicense, and/or sell
  - copies of the Software, and to permit persons to whom the Software is
  - furnished to do so, subject to the following conditions:
  -
  - The above copyright notice and this permission notice shall be included in all
  - copies or substantial portions of the Software.
  -
  - THE SOFTWARE IS PROVIDED "AS IS", WITHOUT WARRANTY OF ANY KIND, EXPRESS OR
  - IMPLIED, INCLUDING BUT NOT LIMITED TO THE WARRANTIES OF MERCHANTABILITY,
  - FITNESS FOR A PARTICULAR PURPOSE AND NONINFRINGEMENT. IN NO EVENT SHALL THE
  - AUTHORS OR COPYRIGHT HOLDERS BE LIABLE FOR ANY CLAIM, DAMAGES OR OTHER
  - LIABILITY, WHETHER IN AN ACTION OF CONTRACT, TORT OR OTHERWISE, ARISING FROM,
  - OUT OF OR IN CONNECTION WITH THE SOFTWARE OR THE USE OR OTHER DEALINGS IN THE
  - SOFTWARE.
  -
  -
  -->


<svg xmlns="http://www.w3.org/2000/svg" version="1.1" width="13px" height="9px" viewBox="0 0 24 24" fill="#C792EA">
  <path fill="#4CAF50"
        d="M19,2L14,6.5V17.5L19,13V2M6.5,5C4.55,5 2.45,5.4 1,6.5V21.16C1,21.41 1.25,21.66 1.5,21.66C1.6,21.66 1.65,21.59 1.75,21.59C3.1,20.94 5.05,20.5 6.5,20.5C8.45,20.5 10.55,20.9 12,22C13.35,21.15 15.8,20.5 17.5,20.5C19.15,20.5 20.85,20.81 22.25,21.56C22.35,21.61 22.4,21.59 22.5,21.59C22.75,21.59 23,21.34 23,21.09V6.5C22.4,6.05 21.75,5.75 21,5.5V7.5L21,13V19C19.9,18.65 18.7,18.5 17.5,18.5C15.8,18.5 13.35,19.15 12,20V13L12,8.5V6.5C10.55,5.4 8.45,5 6.5,5V5Z" />
  <path fill="#F44336"
        d="M20.71,7.04C21.1,6.65 21.1,6 20.71,5.63L18.37,3.29C18,2.9 17.35,2.9 16.96,3.29L15.12,5.12L18.87,8.87M3,17.25V21H6.75L17.81,9.93L14.06,6.18L3,17.25Z" />

</svg>
